icons/scalable/qubes-global-config.svg

<svg width="24" height="24" viewBox="0 0 24 24" fill="none" xmlns="http://www.w3.org/2000/svg">
<mask id="mask0_1_3518" style="mask-type:alpha" maskUnits="userSpaceOnUse" x="2" y="0" width="20" height="24">
<path fill-rule="evenodd" clip-rule="evenodd" d="M11.756 0.911377H12.244C12.8322 0.911377 13.3963 1.14505 13.8123 1.56098C14.2282 1.97692 14.4619 2.54105 14.4619 3.12927V3.32888C14.4623 3.71781 14.5649 4.0998 14.7596 4.43653C14.9542 4.77326 15.234 5.05288 15.5708 5.24735L16.0476 5.52459C16.3848 5.71925 16.7673 5.82173 17.1566 5.82173C17.5459 5.82173 17.9284 5.71925 18.2655 5.52459L18.4319 5.43587C18.9408 5.14229 19.5454 5.06265 20.113 5.21442C20.6806 5.3662 21.1648 5.73699 21.4593 6.2454L21.7033 6.6668C21.9968 7.17573 22.0765 7.78036 21.9247 8.34796C21.7729 8.91556 21.4022 9.39974 20.8937 9.69422L20.7274 9.79402C20.3889 9.98943 20.1081 10.2708 19.9134 10.6096C19.7186 10.9485 19.6169 11.3328 19.6185 11.7236V12.2781C19.6169 12.6689 19.7186 13.0532 19.9134 13.392C20.1081 13.7308 20.3889 14.0122 20.7274 14.2076L20.8937 14.2963C21.4022 14.5908 21.7729 15.075 21.9247 15.6426C22.0765 16.2102 21.9968 16.8148 21.7033 17.3238L21.4593 17.7562C21.1648 18.2647 20.6806 18.6355 20.113 18.7872C19.5454 18.939 18.9408 18.8594 18.4319 18.5658L18.2655 18.4771C17.9284 18.2824 17.5459 18.1799 17.1566 18.1799C16.7673 18.1799 16.3848 18.2824 16.0476 18.4771L15.5708 18.7543C15.234 18.9488 14.9542 19.2284 14.7596 19.5651C14.5649 19.9018 14.4623 20.2838 14.4619 20.6728V20.8724C14.4619 21.4606 14.2282 22.0247 13.8123 22.4407C13.3963 22.8566 12.8322 23.0903 12.244 23.0903H11.756C11.1678 23.0903 10.6037 22.8566 10.1877 22.4407C9.77181 22.0247 9.53814 21.4606 9.53814 20.8724V20.6728C9.53774 20.2838 9.43507 19.9018 9.24043 19.5651C9.04579 19.2284 8.76603 18.9488 8.4292 18.7543L7.95235 18.4771C7.61519 18.2824 7.23273 18.1799 6.84341 18.1799C6.45408 18.1799 6.07162 18.2824 5.73446 18.4771L5.56812 18.5658C5.05919 18.8594 4.45456 18.939 3.88696 18.7872C3.31936 18.6355 2.83518 18.2647 2.5407 17.7562L2.29673 17.3348C2.00315 16.8259 1.92351 16.2213 2.07528 15.6537C2.22706 15.0861 2.59785 14.6019 3.10626 14.3074L3.2726 14.2076C3.61106 14.0122 3.89188 13.7308 4.08662 13.392C4.28136 13.0532 4.3831 12.6689 4.38155 12.2781V11.7125C4.37921 11.3254 4.27562 10.9457 4.08108 10.6111C3.88654 10.2765 3.60781 9.99864 3.2726 9.80511L3.10626 9.69422C2.59785 9.39974 2.22706 8.91556 2.07528 8.34796C1.92351 7.78036 2.00315 7.17573 2.29673 6.6668L2.5407 6.2454C2.83518 5.73699 3.31936 5.3662 3.88696 5.21442C4.45456 5.06265 5.05919 5.14229 5.56812 5.43587L5.73446 5.52459C6.07162 5.71925 6.45408 5.82173 6.84341 5.82173C7.23273 5.82173 7.61519 5.71925 7.95235 5.52459L8.4292 5.24735C8.76603 5.05288 9.04579 4.77326 9.24043 4.43653C9.43507 4.0998 9.53774 3.71781 9.53814 3.32888V3.12927C9.53814 2.54105 9.77181 1.97692 10.1877 1.56098C10.6037 1.14505 11.1678 0.911377 11.756 0.911377ZM15.3274 12.001C15.3274 13.8383 13.838 15.3278 12.0006 15.3278C10.1632 15.3278 8.67377 13.8383 8.67377 12.001C8.67377 10.1636 10.1632 8.67412 12.0006 8.67412C13.838 8.67412 15.3274 10.1636 15.3274 12.001Z" fill="#63A0FF"/>
</mask>
<g mask="url(#mask0_1_3518)">
<path d="M22.3924 6.00032L12.0001 0.000366211L1.60791 6.00032L12.0001 12.0003L22.3924 6.00032Z" fill="#60A5FA"/>
<path d="M22.3925 18.0003V6.00037L12.0002 12.0003V24.0002L22.3925 18.0003Z" fill="#2563EB"/>
<path d="M1.60791 18.0003L12.0001 24.0002V12.0003L1.60791 6.00037V18.0003Z" fill="#3B82F6"/>
</g>
</svg>

<svg xmlns="http://www.w3.org/2000/svg" width="24" height="24" fill="none">
    <mask id="a" width="20" height="24" x="2" y="0" maskUnits="userSpaceOnUse" style="mask-type:alpha">
        <path fill="#63A0FF" fill-rule="evenodd" d="M11.756.911h.488a2.22 2.22 0 0 1 2.218 2.218v.2a2.22 2.22 0 0 0 1.109 1.918l.477.278a2.22 2.22 0 0 0 2.218 0l.166-.09a2.22 2.22 0 0 1 3.027.81l.244.422a2.22 2.22 0 0 1-.81 3.027l-.166.1a2.22 2.22 0 0 0-1.108 1.93v.554a2.22 2.22 0 0 0 1.108 1.93l.167.088a2.22 2.22 0 0 1 .81 3.028l-.245.432a2.217 2.217 0 0 1-3.027.81l-.166-.089a2.22 2.22 0 0 0-2.218 0l-.477.277a2.22 2.22 0 0 0-1.11 1.919v.2a2.22 2.22 0 0 1-2.217 2.217h-.488a2.22 2.22 0 0 1-2.218-2.218v-.2a2.22 2.22 0 0 0-1.109-1.918l-.477-.277a2.22 2.22 0 0 0-2.218 0l-.166.089a2.22 2.22 0 0 1-3.027-.81l-.244-.421a2.22 2.22 0 0 1 .81-3.028l.166-.1a2.22 2.22 0 0 0 1.109-1.929v-.566a2.22 2.22 0 0 0-1.11-1.907l-.166-.11a2.22 2.22 0 0 1-.81-3.028l.245-.422a2.22 2.22 0 0 1 3.027-.81l.166.09a2.22 2.22 0 0 0 2.218 0l.477-.278A2.22 2.22 0 0 0 9.54 3.33v-.2A2.22 2.22 0 0 1 11.755.911m3.571 11.09a3.327 3.327 0 1 1-6.653 0 3.327 3.327 0 0 1 6.653 0" clip-rule="evenodd"/>
    </mask>
    <g mask="url(#a)">
        <path fill="#60A5FA" d="M22.392 6 12 0 1.608 6 12 12z"/>
        <path fill="#2563EB" d="M22.393 18V6L12 12v12z"/>
        <path fill="#3B82F6" d="M1.608 18 12 24V12L1.608 6z"/>
    </g>
</svg>
